X:610
T: Yibeizi wangbuliao maozedong
N: C2128
O: China,Hubei Suixian
S: I, 362]
R: Xiaodiao]
M: 2/4
L: 1/8
K: A
e2cB | e2cB | A3c | B2AF |
FF2A | BFE2 | FAFE | EC3 |
FEF2 | FEF2 | A3c | BAF2 |
FF2A | BFE2 | FAFE | EC3 |
AA2c | BA2F | FF2A | BAFE | FAFE | EC3

@@@ Tune index: 7165
